X:1
T:Title
%%score { ( 1 4 ) | ( 2 3 ) }
L:1/8
Q:1/4=108
M:3/4
K:C
V:1 treble nm="Grand Piano"
V:4 treble 
V:2 bass 
V:3 bass 
V:1
 E6 | E2 D3 D | G6- | G4 z2 | G6 | G2 ^F3 F | B6- | B2 z2 z2 | c4 z2 | B2 A2 G2 | F4 E2 | A4 A2 | %12
w: John~Stainer||||||||||||
 d2 d2 c2 | [FB]2 [Fc]2 [CEA]2 | [_B,DA]2 [B,EG]2 [B,C]2 | [Fc]4 z2 | C4 F2 | F2 E4 | z2 C2 d2 | %19
w: |||||||
 c2 B2 A2 | G2 c2 e2 | e4 z2 | c6 | z2 E2 E2 | A2 G2 F2 | E3 F ED | C2 [CE]2 [EA]2 | %27
w: ||||||||
 [Ac]>[^GB] [GB]2 B2 | d2 d2 c2 | [FB]3 [FB] [Ec][EA] | [D^G]2 [EA]2 F2 | F>E E4 | E2 E2 E2 | %33
w: ||||||
 C2 z2 z2 | [E,B,E]2[K:treble] [B,B]2 [CA]2 | G4 ^F2 | E6 | E6 | E2 D3 D | G6- | G4 z2 | G6 | %42
w: |||||||||
 G2 ^F3 F | B6- | B2 z2 z2 | c4 z2 | B2 A2 G2 | F4 E2 | A4 A2 | d2 d2 c2 | [FB]2 [Fc]2 [CEA]2 | %51
w: |||||||||
 [_B,DA]2 [B,EG]2 [B,C]2 | [Fc]4 z2 | C4 F2 | F2 E4 | z2 C2 d2 | c2 B2 A2 | G2 c2 e2 | e4 z2 | c6 | %60
w: |||||||||
 A4 z2 | F2 c2 f2 | [_Bf]4 [Be]2 | d2- [Fd]2 [CGc]2 | B6 | c4 [CFA]2 |[M:4/4] [DFG]6 z2 | %67
w: |||||||
[M:3/4] [_B,EG]6 | [_B,DA]2 [B,EG]3 [B,G] | c6- | [Fc]4 z2 | E6 | E2 D3 D | G6- | G4 z2 | %75
w: ||||||||
 [G,B,E]6 | %76
w: |
 [G,B,E]2 [F,B,D]2 [G,B,E]2[Q:1/4=106][Q:1/4=105][Q:1/4=103][Q:1/4=101][Q:1/4=100][Q:1/4=98][Q:1/4=96][Q:1/4=95][Q:1/4=93][Q:1/4=91][Q:1/4=89][Q:1/4=88][Q:1/4=86][Q:1/4=84][Q:1/4=83] | %77
w: |
 [E,C]6 |] %78
w: |
V:2
 [C,G,C]6 | [F,G,C]2 [F,G,B,]3 [F,G,B,] | [E,G,C]6- | [E,G,C]4 z2 | [E,B,E]6 | %5
 [A,CE]2 [A,C_E]3 [A,CE] | [B,E]6 | z6 | C2 z2 z2 | [F,^G,D]2 [F,A,C]2 [=G,B,]2 | [A,C]4 [G,B,]2 | %11
 [F,A,C]4 [G,A,^C]2 | [F,A,D]2 [F,A,D]2 [E,A,E]2 | [D,^G,]2 [C,A,]2 C,2 | C,2 C,2 C,2 | %15
 [C,A,]4 z2 | C,4 [A,C]2 | [^G,B,D]2 [G,B,D]4 | D2 z2 z2 | [A,E]2 [E,^G,D]2 [F,A,C]2 | %20
 [G,CE]2[K:treble] [G,EG]2 [G,CG]2 | [G,G]4 z2 | [CE]6 | z2 [A,C]2 [A,C]2 | [CE]2 [B,D]2 [A,C]2 | %25
 [^G,B,]3 [A,C] [G,B,][E,G,] | A,2 A,2 C2 | E>E, E,2 [E,^G,E]2 | [F,A,D]2 [F,A,D]2 [E,A,E]2 | %29
 [D,^G,]3 [D,G,] [C,A,][C,A,] | [B,,B,]2 [C,A,]2 [A,C]2 | [^G,B,D]>[G,B,D] [G,B,D]4 | E,2 E,2 E,2 | %33
 A,,2 G,,2 ^F,,2 | G,,2 [G,,E,]2 [A,,E,]2 | [E,B,]4 z2 | [E,G,]6 | [C,G,C]6 | %38
 [F,G,C]2 [F,G,B,]3 [F,G,B,] | [E,G,C]6- | [E,G,C]4 z2 | [E,B,E]6 | [A,CE]2 [A,C_E]3 [A,CE] | %43
 [B,E]6 | F,2 [F,G,C]2 [F,G,B,]2 | C2 z2 [E,^G,D]2 | [F,^G,D]2 [F,A,C]2 [=G,B,]2 | [A,C]4 [G,B,]2 | %48
 [F,A,C]4 [G,A,^C]2 | [F,A,D]2 [F,A,D]2 [E,A,E]2 | [D,^G,]2 [C,A,]2 C,2 | C,2 C,2 C,2 | %52
 [C,A,]4 z2 | C,4 [A,C]2 | [^G,B,D]2 [G,B,D]4 | D2 z2 [^G,B,E]2 | [A,E]2 [E,^G,D]2 [F,A,C]2 | %57
 [G,CE]2[K:treble] [G,EG]2 [G,CG]2 | [G,G]4 [G,B,F]2 | [A,CE]2 [A,C]2 [A,C]2 | B,4 [B,E]2 | %61
 A,2 [A,CF]2 [A,CF]2 | [G,^C]4 [G,C]2 | z2 A,2 E,2 | [D,G,]6 | [C,A,]4 C,2 |[M:4/4] B,,6 z2 | %67
[M:3/4] C,6 | C,2 C,3 C, | [C,A,]6- | [C,A,]4 z2 | [C,G,C]6 | [C,F,B,]2 [C,F,B,]3 [C,F,] | [F,D]6 | %74
 z6 | G,,6 | G,,2 G,,2 G,,2 | C,6 |] %78
V:3
 x6 | x6 | x6 | x6 | x6 | x6 | G,6- | [F,G,]2 [F,G,C]2 [F,G,B,]2 | [E,G,]4 [E,^G,D]2 | x6 | x6 | %11
 x6 | x6 | x6 | x6 | x6 | x6 | x6 | [^G,B,]4 [G,B,E]2 | x6 | x2[K:treble] x4 | C2 z2 [G,B,F]2 | %22
 x6 | x6 | x6 | x6 | x6 | x6 | x6 | x6 | x6 | x6 | x6 | x6 | x6 | B,,4- [B,,_E,A,]2 | x6 | x6 | %38
 x6 | x6 | x6 | x6 | x6 | G,6- | G,2 z2 z2 | [E,G,]4 z2 | x6 | x6 | x6 | x6 | x6 | x6 | x6 | x6 | %54
 x6 | [^G,B,]4 z2 | x6 | x2[K:treble] x4 | C2 z2 z2 | x6 | x6 | x6 | x6 | F,4 z2 | x6 | x6 | %66
[M:4/4] x8 |[M:3/4] x6 | x6 | x6 | x6 | x6 | x6 | C,6- | [C,E,]4 z2 | x6 | x6 | x6 |] %78
V:4
 x6 | x6 | x6 | x6 | x6 | x6 | x6 | D2 A2 G2 | z2 E2 B2 | x6 | x6 | x6 | x6 | x6 | x6 | x6 | x6 | %17
 x6 | E4 z2 | x6 | x6 | z2 A,2 d2 | x6 | x6 | x6 | x6 | x6 | x6 | x6 | x6 | x6 | x6 | x6 | %33
 [E,E]2- [E,B,E]2 [E,A,E]2 | x2[K:treble] x4 | x6 | x6 | x6 | x6 | x6 | x6 | x6 | x6 | x6 | %44
 D2 A2 G2 | z2 E2 B2 | x6 | x6 | x6 | x6 | x6 | x6 | x6 | x6 | x6 | E4 z2 | x6 | x6 | z2 A,2 d2 | %59
 z2 E2 A2 | z2 D2 G2 | x6 | x6 | [DA]2 z2 z2 | F6- | F4 z2 |[M:4/4] x8 |[M:3/4] x6 | x6 | G6 | x6 | %71
 x6 | x6 | x6 | C4 z2 | x6 | x6 | x6 |] %78

